Numix-uTouch/48x48/apps/accessories-dictionary.svg

<?xml version="1.0" encoding="UTF-8" standalone="no"?>
<svg
   xmlns:dc="http://purl.org/dc/elements/1.1/"
   xmlns:cc="http://creativecommons.org/ns#"
   xmlns:rdf="http://www.w3.org/1999/02/22-rdf-syntax-ns#"
   xmlns:svg="http://www.w3.org/2000/svg"
   xmlns="http://www.w3.org/2000/svg"
   xmlns:xlink="http://www.w3.org/1999/xlink"
   xmlns:sodipodi="http://sodipodi.sourceforge.net/DTD/sodipodi-0.dtd"
   xmlns:inkscape="http://www.inkscape.org/namespaces/inkscape"
   width="48"
   height="48"
   viewBox="0 0 48 48"
   id="svg2"
   version="1.1"
   inkscape:version="0.48.4 r9939"
   sodipodi:docname="accessories-dictionary.svg">
  <metadata
     id="metadata50">
    <rdf:RDF>
      <cc:Work
         rdf:about="">
        <dc:format>image/svg+xml</dc:format>
        <dc:type
           rdf:resource="http://purl.org/dc/dcmitype/StillImage" />
      </cc:Work>
    </rdf:RDF>
  </metadata>
  <sodipodi:namedview
     pagecolor="#ffffff"
     bordercolor="#666666"
     borderopacity="1"
     objecttolerance="10"
     gridtolerance="10"
     guidetolerance="10"
     inkscape:pageopacity="0"
     inkscape:pageshadow="2"
     inkscape:window-width="640"
     inkscape:window-height="480"
     id="namedview48"
     showgrid="false"
     inkscape:zoom="4.9166667"
     inkscape:cx="24"
     inkscape:cy="24"
     inkscape:window-x="0"
     inkscape:window-y="0"
     inkscape:window-maximized="0"
     inkscape:current-layer="svg2" />
  <defs
     id="defs4">
    <clipPath
       id="clip1">
      <rect
         width="48"
         height="48"
         id="rect7" />
    </clipPath>
    <filter
       width="100%"
       x="0"
       y="0"
       height="100%"
       filterUnits="objectBoundingBox"
       id="alpha">
      <feColorMatrix
         values="0 0 0 0 1 0 0 0 0 1 0 0 0 0 1 0 0 0 1 0"
         in="SourceGraphic"
         type="matrix"
         id="feColorMatrix10" />
    </filter>
    <g
       style="clip-path:url(#clip1)"
       id="surface11"
       clip-path="url(#clip1)">
      <path
         style="fill:#fff"
         d="M 18.992188 16.984375 C 19.121094 16.886719 20.324219 15.261719 23.636719 14.597656 C 26.242188 14.039062 27.207031 14.28125 29.996094 14.597656 C 36.761719 19.144531 36.757812 19.117188 42.183594 22.835938 C 42.167969 24.5 42.230469 24.957031 42.183594 25.898438 C 35.625 25.410156 32.960938 27.261719 29.210938 29.484375 C 23.363281 29.175781 17.179688 31.089844 14.019531 33.335938 C 12.523438 34.105469 12.777344 33.53125 12.691406 33.511719 C 12.597656 33.488281 5.886719 22.179688 5.804688 22.019531 C 5.714844 21.835938 6.609375 19.472656 6.707031 19.421875 C 6.8125 19.371094 7.890625 17.796875 11.527344 16.742188 C 15.679688 15.539062 18.988281 16.683594 19.140625 16.761719 C 19.464844 16.921875 28.117188 26.101562 28.253906 26.238281 C 23.679688 26.167969 18.140625 26.46875 13.757812 29.835938 C 13.65625 30.007812 7.296875 19.378906 7.167969 19.246094 "
         id="path13" />
      <path
         style="fill:#fff"
         d="M 28.324219 26.1875 C 32.070312 22.867188 37.21875 22.15625 42.035156 22.804688 "
         id="path15" />
      <path
         style="fill:#fff"
         d="M 13.839844 29.734375 C 13.378906 30.125 12.71875 33.578125 13 33.539062 "
         id="path17" />
    </g>
    <image
       width="48"
       height="48"
       id="image9"
       xlink:href="data:image/png;base64,iVBORw0KGgoAAAANSUhEUgAAADAAAAAwCAYAAABXAvmHAAAABmJLR0QA/wD/AP+gvaeTAAAAbUlEQVRoge3PIQqAQBRF0a9MmaBu0vW5FZdhs3zQJFjFZBAuA/fEl97thlLmaMBR63Jl7u+9J878yQCaATQDaAbQDKAZQDOAZgDNAJoBNANoBtAMoBlAM4DWfEDZIlb6xBfTOJ6RSd+QJEmSHm5lOAsEkXjKhwAAAABJRU5ErkJggg==" />
    <mask
       id="mask0">
      <g
         style="filter:url(#alpha)"
         id="g21">
        <use
           xlink:href="#image9"
           id="use23" />
      </g>
    </mask>
    <radialGradient
       cx="148.004"
       cy="160"
       gradientTransform="matrix(.1831 0 0 .1831 -3.10029 -5.29688)"
       id="radial0"
       r="128"
       gradientUnits="userSpaceOnUse">
      <stop
         offset="0"
         style="stop-color:#f9c9c7"
         id="stop26" />
      <stop
         offset="1"
         style="stop-color:#811e19"
         id="stop28" />
    </radialGradient>
  </defs>
  <path
     style="fill:url(#radial0)"
     d="M 47.4375 11.546875 L 47.4375 36.453125 C 47.4375 46.703125 47.4375 47.4375 36.453125 47.4375 L 11.550781 47.4375 C 0.5625 47.4375 0.5625 46.703125 0.5625 36.453125 L 0.5625 11.546875 C 0.5625 1.296875 0.5625 0.5625 11.550781 0.5625 L 36.453125 0.5625 C 47.4375 0.5625 47.4375 1.296875 47.4375 11.546875 Z "
     id="path30" />
  <path
     style="fill:#fff;fill-opacity:.051"
     d="M 38.265625 47.4375 C 40.808594 47.425781 42.644531 47.355469 43.976562 46.996094 L 39.746094 39.746094 L 35.261719 47.4375 L 36.453125 47.4375 C 37.09375 47.4375 37.695312 47.4375 38.265625 47.4375 Z M 39.746094 39.746094 L 34.621094 30.957031 L 29.492188 39.746094 Z M 39.746094 39.746094 L 47.398438 39.746094 C 47.429688 38.773438 47.4375 37.683594 47.4375 36.449219 L 47.4375 35.351562 L 44.875 30.957031 Z M 44.875 30.957031 L 39.746094 22.167969 L 34.621094 30.957031 Z M 44.875 30.957031 L 47.4375 30.957031 L 47.4375 26.5625 Z M 34.621094 30.957031 L 29.492188 22.167969 L 24.367188 30.957031 Z M 24.367188 30.957031 L 19.238281 39.746094 L 29.492188 39.746094 Z M 24.367188 30.957031 L 19.238281 22.167969 L 14.113281 30.957031 Z M 14.113281 30.957031 L 8.984375 39.746094 L 19.238281 39.746094 Z M 14.113281 30.957031 L 8.984375 22.167969 L 3.859375 30.957031 Z M 3.859375 30.957031 L 0.5625 36.605469 C 0.5625 37.773438 0.574219 38.816406 0.601562 39.746094 L 8.984375 39.746094 Z M 3.859375 30.957031 L 0.5625 25.308594 L 0.5625 30.957031 Z M 8.984375 39.746094 L 4.671875 47.140625 C 6.269531 47.433594 8.480469 47.4375 11.546875 47.4375 L 13.472656 47.4375 Z M 8.984375 22.167969 L 3.859375 13.378906 L 0.5625 19.027344 L 0.5625 22.167969 Z M 8.984375 22.167969 L 19.238281 22.167969 L 14.113281 13.378906 Z M 14.113281 13.378906 L 8.984375 4.589844 L 3.859375 13.378906 Z M 14.113281 13.378906 L 24.367188 13.378906 L 19.238281 4.589844 Z M 19.238281 4.589844 L 16.886719 0.5625 L 11.546875 0.5625 C 11.472656 0.5625 11.410156 0.5625 11.335938 0.5625 L 8.984375 4.589844 Z M 19.238281 4.589844 L 29.492188 4.589844 L 27.140625 0.5625 L 21.589844 0.5625 Z M 29.492188 4.589844 L 39.746094 4.589844 L 37.394531 0.5625 C 37.082031 0.5625 36.785156 0.5625 36.449219 0.5625 L 31.84375 0.5625 Z M 29.492188 4.589844 L 24.367188 13.378906 L 34.621094 13.378906 Z M 34.621094 13.378906 L 44.875 13.378906 L 39.746094 4.589844 Z M 34.621094 13.378906 L 29.492188 22.167969 L 39.746094 22.167969 Z M 39.746094 22.167969 L 47.4375 22.167969 L 47.4375 17.773438 L 44.875 13.378906 Z M 44.875 13.378906 L 47.4375 13.378906 L 47.4375 11.546875 C 47.4375 10.632812 47.429688 9.796875 47.414062 9.023438 Z M 29.492188 22.167969 L 24.367188 13.378906 L 19.238281 22.167969 Z M 39.746094 4.589844 L 47.054688 4.589844 C 46.5 1.832031 45.167969 0.960938 42.023438 0.6875 Z M 8.984375 4.589844 L 6.679688 0.636719 C 3.019531 0.84375 1.539062 1.632812 0.945312 4.589844 Z M 3.859375 13.378906 L 0.621094 7.824219 C 0.578125 8.898438 0.5625 10.132812 0.5625 11.546875 L 0.5625 13.378906 Z M 19.238281 39.746094 L 14.753906 47.4375 L 23.726562 47.4375 Z M 29.492188 39.746094 L 25.007812 47.4375 L 33.980469 47.4375 Z M 2.59375 46.367188 L 0.992188 43.621094 C 1.285156 44.9375 1.777344 45.800781 2.59375 46.367188 Z "
     id="path32" />
  <path
     style="fill:#f9f9f9"
     inkscape:connector-curvature="0"
     id="path80"
     d="m 26,37 0,-17.999999 -4,0 L 22,37 z M 21,18.000001 12,13 l 0,17 9,6.000001 z M 35.999999,30 36.000002,13 27,18.000001 l 0,18 z M 34,13 c -4,0 -6,0.519831 -10,4 -4,-3.39291 -6,-4 -10,-4 l 8,5.000001 4,0 z" />
</svg>

<svg xmlns="http://www.w3.org/2000/svg" viewBox="0 0 48 48"><defs><radialGradient id="0" cx="24" cy="24" r="23.437" gradientUnits="userSpaceOnUse"><stop stop-color="#d93f3f"/><stop offset="1" stop-color="#b91f1f"/></radialGradient></defs><path d="m 47.44 11.547 l 0 24.906 c 0 10.25 0 10.984 -10.984 10.984 l -24.902 0 c -10.988 0 -10.988 -0.734 -10.988 -10.984 l 0 -24.906 c 0 -10.25 0 -10.984 10.988 -10.984 l 24.902 0 c 10.984 0 10.984 0.734 10.984 10.984" fill="url(#0)"/><path d="m 18 12 c -6 0 -6 5.438 -6 5.438 l 0 10.938 c 0 0 -0.02 0.121 0 0.313 c 0.082 1.461 0.75 7.313 6 7.313 l 12 0 c 5.25 0 5.918 -5.852 6 -7.313 c 0.02 -0.191 0 -0.313 0 -0.313 l 0 -10.938 c 0 -5.453 -6 -5.438 -6 -5.438 m -9.938 6 l 1.031 0 l 4.03 9.875 l -1.219 0 l -1.281 -3.125 l -4.156 0 l -1.25 3.125 l -1.219 0 m 4.563 -8.625 c -0.105 0.43 -0.242 0.891 -0.438 1.406 l -1.219 3.063 l 3.344 0 l -1.219 -3.063 c -0.156 -0.387 -0.305 -0.848 -0.469 -1.406 m 8.719 1.125 c 0.922 0 1.59 0.203 2.031 0.594 c 0.445 0.387 0.688 1.012 0.688 1.875 l 0 5.03 l -0.875 0 l -0.219 -1.063 l -0.063 0 c -0.387 0.461 -0.77 0.773 -1.156 0.938 c -0.383 0.16 -0.863 0.25 -1.438 0.25 c -0.766 0 -1.375 -0.184 -1.813 -0.563 c -0.43 -0.375 -0.625 -0.93 -0.625 -1.625 c 0 -1.484 1.223 -2.242 3.719 -2.313 l 1.313 -0.063 l 0 -0.438 c 0 -0.578 -0.113 -1 -0.375 -1.281 c -0.262 -0.277 -0.68 -0.406 -1.25 -0.406 c -0.648 0 -1.367 0.188 -2.188 0.563 l -0.375 -0.875 c 0.391 -0.199 0.805 -0.355 1.25 -0.469 c 0.457 -0.113 0.918 -0.156 1.375 -0.156 m 1.531 3.875 l -1.156 0.031 c -0.934 0.031 -1.613 0.191 -2.031 0.438 c -0.406 0.242 -0.594 0.609 -0.594 1.125 c 0 0.402 0.121 0.699 0.375 0.906 c 0.258 0.211 0.633 0.344 1.094 0.344 c 0.73 0 1.273 -0.211 1.688 -0.594 c 0.418 -0.379 0.625 -0.91 0.625 -1.594 m 0 -0.656" fill="#fff"/><path d="m 38.27 47.44 c 2.543 -0.012 4.379 -0.082 5.711 -0.441 l -4.23 -7.25 -4.484 7.691 1.191 0 c 0.641 0 1.242 0 1.813 0 z m 1.48 -7.691 -5.125 -8.789 -5.129 8.789 z m 0 0 7.652 0 c 0.031 -0.973 0.039 -2.063 0.039 -3.297 l 0 -1.098 -2.563 -4.395 z m 5.129 -8.789 -5.129 -8.789 -5.125 8.789 z m 0 0 2.563 0 0 -4.395 z m -10.254 0 -5.129 -8.789 -5.125 8.789 z m -10.254 0 -5.129 8.789 10.254 0 z m 0 0 -5.129 -8.789 -5.125 8.789 z m -10.254 0 -5.129 8.789 10.254 0 z m 0 0 -5.129 -8.789 -5.125 8.789 z m -10.254 0 -3.297 5.648 c 0 1.168 0.012 2.211 0.039 3.141 l 8.383 0 z m 0 0 -3.297 -5.648 0 5.648 z m 5.125 8.789 -4.313 7.395 c 1.598 0.293 3.809 0.297 6.879 0.297 l 1.922 0 z m 0 -17.578 -5.125 -8.789 -3.297 5.648 0 3.141 z m 0 0 10.254 0 -5.125 -8.789 z m 5.129 -8.789 -5.129 -8.789 -5.125 8.789 z m 0 0 10.254 0 -5.129 -8.789 z m 5.125 -8.789 -2.352 -4.03 -5.336 0 c -0.078 0 -0.141 0 -0.215 0 l -2.352 4.03 z m 0 0 10.254 0 -2.352 -4.03 -5.551 0 z m 10.254 0 10.254 0 l -2.352 -4.03 c -0.313 0 -0.609 0 -0.941 0 l -4.609 0 z m 0 0 -5.125 8.789 10.254 0 z m 5.129 8.789 10.254 0 -5.129 -8.789 z m 0 0 -5.129 8.789 10.254 0 z m 5.125 8.789 7.691 0 0 -4.395 -2.563 -4.395 z m 5.129 -8.789 2.563 0 0 -1.832 c 0 -0.914 -0.008 -1.75 -0.023 -2.523 z m -15.383 8.789 -5.125 -8.789 -5.129 8.789 z m 10.254 -17.578 7.309 0 c -0.555 -2.758 -1.887 -3.629 -5.03 -3.902 z m -30.762 0 l -2.305 -3.953 c -3.66 0.207 -5.141 0.996 -5.734 3.953 z m -5.125 8.789 l -3.238 -5.555 c -0.043 1.074 -0.059 2.309 -0.059 3.723 l 0 1.832 z m 15.379 26.367 -4.484 7.691 8.973 0 z m 10.254 0 -4.484 7.691 8.973 0 z m -26.898 6.621 -1.602 -2.746 c 0.293 1.316 0.785 2.18 1.602 2.746 z" fill="#fff" fill-opacity="0.059"/></svg>
